X: 656
T: Ping diao
L: 1/8
M: 4/4
K: Bb
f ff2b c'f'2 [I:setbarnb 1]| 
f' d' c' b c' f' c' b | 
b ff2f bb2 | 
f b d cB4 | 
f d c B c ff2 | 
f d c B c dc2 | 
f ff2b c' f' d' | 
c' f' c' bf4 |]

@@@ Tune index: 9530
